X:68
T:Ratcliffe Highway
M:6/8
L:1/8
Q:1/4=3D90
K:D
F/G/|\
AFA  AAA|dcB  A2F   |AAA  AGF |FEE D2A/A/|
AFA  AAA|dcB  A2F   |AAA  AF>D|EDE D2F/A/|
A>AA FD2|B>BB GEF/G/|A>AA Afd |cBc d2   ||
